X:270
M:C|
L:1/8
K:B_
fddb fdec|fddf gabg|fddb fdec|DFBd cA G2|fddb fdec|fddf gabg|
fdcA BGFE|DCB,d cA G||

